app/assets/images/icons/active/subway.svg

<?xml version="1.0" encoding="UTF-8" standalone="no"?>
<svg width="32px" height="232px" viewBox="0 0 32 232" version="1.1" xmlns="http://www.w3.org/2000/svg" xmlns:xlink="http://www.w3.org/1999/xlink" xmlns:sketch="http://www.bohemiancoding.com/sketch/ns">
    <title>subway</title>
    <description>Created with Sketch (http://www.bohemiancoding.com/sketch)</description>
    <defs></defs>
    <g id="Transport" stroke="none" stroke-width="1" fill="none" fill-rule="evenodd" sketch:type="MSPage">
        <path d="M13.5517928,131.188 C13.5517928,130.012 14.6095618,129.243 16.1553785,129.243 C18.5886454,129.243 19.190239,130.151 21.0199203,130.151 C22.5368526,130.151 23.5577689,129.074 23.5577689,127.602 C23.5577689,125.514 21.0199203,124 16.439243,124 C11.6822709,124 7.42430279,126.452 7.42430279,131.662 C7.42430279,136 10.4860558,137.205 13.4472112,138.114 C16.690239,139.125 18.8705179,139.492 18.8705179,141.305 C18.8705179,142.487 18.062749,143.557 15.8436255,143.557 C12.9183267,143.557 11.0856574,142.182 9.67729084,142.182 C7.9501992,142.182 7,143.59 7,145.075 C7,147.76 12.0717131,149 15.4173307,149 C20.7390438,149 25,146.516 25,141.002 C25,136.469 22.0059761,134.955 18.9073705,133.981 C14.9601594,132.737 13.5517928,132.574 13.5517928,131.188 Z M13.5517928,131.188" id="subway--white" fill="#206FAC" sketch:type="MSShapeGroup"></path>
        <path d="M13.5517928,91.188 C13.5517928,90.012 14.6095618,89.243 16.1553785,89.243 C18.5886454,89.243 19.190239,90.151 21.0199203,90.151 C22.5368526,90.151 23.5577689,89.074 23.5577689,87.602 C23.5577689,85.514 21.0199203,84 16.439243,84 C11.6822709,84 7.42430279,86.452 7.42430279,91.662 C7.42430279,96 10.4860558,97.205 13.4472112,98.114 C16.690239,99.125 18.8705179,99.492 18.8705179,101.305 C18.8705179,102.487 18.062749,103.557 15.8436255,103.557 C12.9183267,103.557 11.0856574,102.182 9.67729084,102.182 C7.9501992,102.182 7,103.59 7,105.075 C7,107.76 12.0717131,109 15.4173307,109 C20.7390438,109 25,106.516 25,101.002 C25,96.469 22.0059761,94.955 18.9073705,93.981 C14.9601594,92.737 13.5517928,92.574 13.5517928,91.188 Z M13.5517928,91.188" id="subway--subdued-grey" fill="#FFFFFF" sketch:type="MSShapeGroup"></path>
        <path d="M13.5517928,51.188 C13.5517928,50.012 14.6095618,49.243 16.1553785,49.243 C18.5886454,49.243 19.190239,50.151 21.0199203,50.151 C22.5368526,50.151 23.5577689,49.074 23.5577689,47.602 C23.5577689,45.514 21.0199203,44 16.439243,44 C11.6822709,44 7.42430279,46.452 7.42430279,51.662 C7.42430279,56 10.4860558,57.205 13.4472112,58.114 C16.690239,59.125 18.8705179,59.492 18.8705179,61.305 C18.8705179,62.487 18.062749,63.557 15.8436255,63.557 C12.9183267,63.557 11.0856574,62.182 9.67729084,62.182 C7.9501992,62.182 7,63.59 7,65.075 C7,67.76 12.0717131,69 15.4173307,69 C20.7390438,69 25,66.516 25,61.002 C25,56.469 22.0059761,54.955 18.9073705,53.981 C14.9601594,52.737 13.5517928,52.574 13.5517928,51.188 Z M13.5517928,51.188" id="subway--body-grey" fill="#67737B" sketch:type="MSShapeGroup"></path>
        <path d="M13.5517928,11.188 C13.5517928,10.012 14.6095618,9.243 16.1553785,9.243 C18.5886454,9.243 19.190239,10.151 21.0199203,10.151 C22.5368526,10.151 23.5577689,9.074 23.5577689,7.602 C23.5577689,5.514 21.0199203,4 16.439243,4 C11.6822709,4 7.42430279,6.452 7.42430279,11.662 C7.42430279,16 10.4860558,17.205 13.4472112,18.114 C16.690239,19.125 18.8705179,19.492 18.8705179,21.305 C18.8705179,22.487 18.062749,23.557 15.8436255,23.557 C12.9183267,23.557 11.0856574,22.182 9.67729084,22.182 C7.9501992,22.182 7,23.59 7,25.075 C7,27.76 12.0717131,29 15.4173307,29 C20.7390438,29 25,26.516 25,21.002 C25,16.469 22.0059761,14.955 18.9073705,13.981 C14.9601594,12.737 13.5517928,12.574 13.5517928,11.188 Z M13.5517928,11.188" id="subway--title-grey" fill="#3A434E" sketch:type="MSShapeGroup"></path>
    </g>
</svg>

<svg width="32" height="232" viewBox="0 0 32 232" xmlns="http://www.w3.org/2000/svg" xmlns:sketch="http://www.bohemiancoding.com/sketch/ns"><title>subway</title><g sketch:type="MSPage" fill="none"><path d="M13.552 131.188c0-1.176 1.058-1.945 2.604-1.945 2.433 0 3.035.908 4.865.908 1.517 0 2.538-1.077 2.538-2.549 0-2.088-2.538-3.602-7.119-3.602-4.757 0-9.015 2.452-9.015 7.662 0 4.338 3.062 5.543 6.023 6.452 3.243 1.011 5.423 1.378 5.423 3.191 0 1.182-.808 2.252-3.027 2.252-2.925 0-4.758-1.375-6.166-1.375-1.727 0-2.677 1.408-2.677 2.893 0 2.685 5.072 3.925 8.417 3.925 5.322 0 9.583-2.484 9.583-7.998 0-4.533-2.994-6.047-6.093-7.021-3.947-1.244-5.356-1.407-5.356-2.793zm0 0" fill="#206FAC" sketch:type="MSShapeGroup"/><path d="M13.552 91.188c0-1.176 1.058-1.945 2.604-1.945 2.433 0 3.035.908 4.865.908 1.517 0 2.538-1.077 2.538-2.549 0-2.088-2.538-3.602-7.119-3.602-4.757 0-9.015 2.452-9.015 7.662 0 4.338 3.062 5.543 6.023 6.452 3.243 1.011 5.423 1.378 5.423 3.191 0 1.182-.808 2.252-3.027 2.252-2.925 0-4.758-1.375-6.166-1.375-1.727 0-2.677 1.408-2.677 2.893 0 2.685 5.072 3.925 8.417 3.925 5.322 0 9.583-2.484 9.583-7.998 0-4.533-2.994-6.047-6.093-7.021-3.947-1.244-5.356-1.407-5.356-2.793zm0 0" fill="#fff" sketch:type="MSShapeGroup"/><path d="M13.552 51.188c0-1.176 1.058-1.945 2.604-1.945 2.433 0 3.035.908 4.865.908 1.517 0 2.538-1.077 2.538-2.549 0-2.088-2.538-3.602-7.119-3.602-4.757 0-9.015 2.452-9.015 7.662 0 4.338 3.062 5.543 6.023 6.452 3.243 1.011 5.423 1.378 5.423 3.191 0 1.182-.808 2.252-3.027 2.252-2.925 0-4.758-1.375-6.166-1.375-1.727 0-2.677 1.408-2.677 2.893 0 2.685 5.072 3.925 8.417 3.925 5.322 0 9.583-2.484 9.583-7.998 0-4.533-2.994-6.047-6.093-7.021-3.947-1.244-5.356-1.407-5.356-2.793zm0 0" fill="#67737B" sketch:type="MSShapeGroup"/><path d="M13.552 11.188c0-1.176 1.058-1.945 2.604-1.945 2.433 0 3.035.908 4.865.908 1.517 0 2.538-1.077 2.538-2.549 0-2.088-2.538-3.602-7.119-3.602-4.757 0-9.015 2.452-9.015 7.662 0 4.338 3.062 5.543 6.023 6.452 3.243 1.011 5.423 1.378 5.423 3.191 0 1.182-.808 2.252-3.027 2.252-2.925 0-4.758-1.375-6.166-1.375-1.727 0-2.677 1.408-2.677 2.893 0 2.685 5.072 3.925 8.417 3.925 5.322 0 9.583-2.484 9.583-7.998 0-4.533-2.994-6.047-6.093-7.021-3.947-1.244-5.356-1.407-5.356-2.793zm0 0" fill="#3A434E" sketch:type="MSShapeGroup"/></g></svg>
